X:37
T:Polska efter Gabriel Herlitz
R:sl\"angpolska
H:efter Gabriel Herlitz, Visby (1812-1889)
A:Gotland
Z:id:hn-sp-37
M:3/4
L:1/16
K:A
e2a2 gfed cAce | e2a2 gfed c2e2 | a4 gfed cdef |1 edcB A2GF E4 :|2
edcB B2AB A4 |: AcAc AcAc edcd | BdBd BdBd edcB | AcAc AcAc edcd |
BdBd BdBd edcB | A2a2 gfed cdef | edcB B2AB A4 :|
<end>
<start>
